src/img/webpack.svg

<svg width="38" height="38" viewBox="0 0 38 38" fill="none" xmlns="http://www.w3.org/2000/svg">
<path d="M33.1141 28.0015L19.5926 35.625V29.6888L28.0175 25.0687L33.1141 28.0015ZM34.0404 27.1667V11.2264L29.0944 14.0752V24.3223L34.0404 27.1667ZM4.88329 28.0015L18.4048 35.625V29.6888L9.97547 25.0687L4.88329 28.0015ZM3.95703 27.1667V11.2264L8.90296 14.0752V24.3223L3.95703 27.1667ZM4.5376 10.1928L18.4048 2.375V8.11248L9.51899 12.9843L9.44808 13.024L4.5376 10.1928ZM33.4598 10.1928L19.5926 2.375V8.11248L28.4784 12.9798L28.5493 13.0196L33.4598 10.1928Z" fill="#272727"/>
<path d="M18.4048 28.3372L10.0907 23.779V14.7554L18.4048 19.5388V28.3372ZM19.5926 28.3372L27.9067 23.7834V14.7554L19.5926 19.5388V28.3372ZM10.6535 13.713L18.9987 9.1416L27.3438 13.713L18.9987 18.5141L10.6535 13.713Z" fill="#272727"/>
</svg>

<svg width="38" height="38" viewBox="0 0 38 38" fill="none" xmlns="http://www.w3.org/2000/svg"><path d="M33.114 28.002l-13.521 7.623v-5.936l8.424-4.62 5.097 2.933zm.926-.835v-15.94l-4.946 2.848v10.247l4.946 2.845zM4.883 28l13.522 7.624v-5.936l-8.43-4.62-5.092 2.933zm-.926-.834v-15.94l4.946 2.848v10.247l-4.946 2.845zm.58-16.974l13.868-7.818v5.737l-8.886 4.872-.07.04-4.911-2.831zm28.923 0L19.593 2.375v5.737l8.885 4.868.071.04 4.91-2.827zM18.405 28.337L10.09 23.78v-9.024l8.314 4.784v8.798zm1.188 0l8.314-4.554v-9.028l-8.314 4.784v8.798zm-8.94-14.624L19 9.142l8.345 4.571L19 18.514l-8.345-4.801z" fill="#272727"/></svg>
